X:202 
T:Tear the Calico (reel) 
B:CRE3.137 (StrÃÂÃÂÃÂÃÂ³ic an CeaileacÃÂÃÂÃÂÃÂ³)
F:file ID: cre.3/202tear_c
R:reel
M:C
L:1/8
Q:180
K:G
A|GEE2 cABG|AG (3EFG AcBA|GEE2 cABG|ABGE D2DE|
"5"GEE2 cABG|AG (3EFG AcBA|d2cA BGAF|GEDE G3:|
%B
G/A/|"9"Bdd2 cBAG|AG (3EFG AGAc|Bdd2 cBAG|ABGE D2Dd|
"13"Bdd2 cBAG|AG (3EFG AGAc|Bdd2 eBdB|AG (3EFG cABA||
%C
"17"G2BG G2BG|AG (3EFG AcBA|G2BG G2BG|ABGE D2DE|
"21"G2BG G2BG|AG (3EFG AcBA|G2BG G2BG|ABGE D2D2||

%%%

